img/icons/logo_cabinet.svg

<svg width="28" height="24" viewBox="0 0 28 24" fill="none" xmlns="http://www.w3.org/2000/svg">
<path fill-rule="evenodd" clip-rule="evenodd" d="M14.0004 0.916016C11.9229 0.916016 9.93041 1.74132 8.46136 3.21038C6.9923 4.67944 6.16699 6.67191 6.16699 8.74946C6.16699 10.827 6.9923 12.8195 8.46136 14.2886C8.63887 14.4661 8.82404 14.6342 9.01607 14.7926C6.1758 15.794 3.26194 17.7327 0.984904 21.0059C0.555217 21.6236 0.733456 22.4556 1.36906 22.8617C1.99859 23.2639 2.85148 23.1043 3.27653 22.4933C6.38408 18.0262 10.811 16.5829 14.0003 16.5829C17.1896 16.5829 21.6166 18.0262 24.7242 22.4933C25.1492 23.1043 26.0021 23.2639 26.6316 22.8617C27.2672 22.4556 27.4455 21.6236 27.0158 21.0059C24.7388 17.7328 21.825 15.7941 18.9847 14.7927C19.1768 14.6342 19.362 14.4661 19.5395 14.2886C21.0086 12.8195 21.8339 10.827 21.8339 8.74946C21.8339 6.67191 21.0086 4.67944 19.5395 3.21038C18.0705 1.74132 16.078 0.916016 14.0004 0.916016ZM10.347 5.09602C11.316 4.12707 12.6301 3.58272 14.0004 3.58272C15.3707 3.58272 16.6849 4.12707 17.6539 5.09602C18.6228 6.06497 19.1672 7.37916 19.1672 8.74946C19.1672 10.1198 18.6228 11.434 17.6539 12.4029C16.6849 13.3719 15.3707 13.9162 14.0004 13.9162C12.6301 13.9162 11.316 13.3719 10.347 12.4029C9.37804 11.434 8.83369 10.1198 8.83369 8.74946C8.83369 7.37916 9.37804 6.06497 10.347 5.09602Z" fill="#141414"/>
</svg>

<svg width="28" height="24" fill="none" xmlns="http://www.w3.org/2000/svg"><path fill-rule="evenodd" clip-rule="evenodd" d="M14 .916a7.833 7.833 0 00-4.984 13.877c-2.84 1.001-5.754 2.94-8.031 6.213-.43.618-.252 1.45.384 1.856.63.402 1.482.242 1.908-.369 3.107-4.467 7.534-5.91 10.723-5.91 3.19 0 7.617 1.443 10.724 5.91.425.611 1.278.77 1.908.369a1.306 1.306 0 00.384-1.856c-2.277-3.273-5.191-5.212-8.031-6.213A7.834 7.834 0 0014 .916zm-3.653 4.18a5.167 5.167 0 117.307 7.307 5.167 5.167 0 01-7.307-7.307z" fill="#141414"/></svg>
